svg/fluentui-system-icons/ic_fluent_color_fill_accent_28_regular.svg

<svg width="28" height="28" viewBox="0 0 28 28" fill="none" xmlns="http://www.w3.org/2000/svg">
<path d="M16.5122 17.75C16.5043 17.8325 16.5 17.916 16.5 18C16.5 19.933 18.067 21.5 20 21.5C21.7845 21.5 23.2571 20.1645 23.4728 18.4384C23.9516 18.8938 24.25 19.5371 24.25 20.25V21.75C24.25 23.1307 23.1307 24.25 21.75 24.25H6.25C4.86929 24.25 3.75 23.1307 3.75 21.75V20.25C3.75 18.8693 4.86929 17.75 6.25 17.75H7.26107L8.36255 18.8515C9.82695 20.3159 12.2012 20.316 13.6657 18.8516L14.7675 17.75H16.5122Z" fill="#212121"/>
</svg>

<svg xmlns="http://www.w3.org/2000/svg" width="28" height="28"><path d="M16.512 17.75a2.624 2.624 0 0 0-.012.25 3.5 3.5 0 0 0 6.973.438c.479.456.777 1.1.777 1.812v1.5a2.5 2.5 0 0 1-2.5 2.5H6.25a2.5 2.5 0 0 1-2.5-2.5v-1.5a2.5 2.5 0 0 1 2.5-2.5h1.011l1.102 1.102a3.75 3.75 0 0 0 5.303 0l1.101-1.102h1.745Z"/></svg>
